X: 576
T: Fermoy Lasses
B: good tune book
B: tunes
M:4/4
R: reel
Q: 1/4=100
K:Eminor
V:1 
GE ~E2 BE ~E2|GFGA B2BA|GE ~E2 BE ~E2|FADF AcBA|
 GE ~E2 BE ~E2|GFGA B2BA|G2GF GBdB|AFDF AcBA||
 G2 BG dGBG|G2 Bd efg2|G2 BG dGBG|FADF AcBA|
 G2 BG dGBG|G2 Bd efg2|fgfe dedc|AFDF AcBA||
% abcbook-tune_id 63dce3672530be8c41aba929
% abcbook-tune_composer_id 
% abcbook-link-0 https://www.youtube.com/watch?v=FjnFNuPxZ6U
% abcbook-link-title-0 The Fermoy Lasses BEAUTIFUL IRISH REEL
% abcbook-boost 0
% abcbook-difficulty 0
% abcbook-tags good tune book
% abcbook-tablature 
% abcbook-transpose 
% abcbook-tuning 
% abcbook-lastupdated 1675428522548
% abcbook-soundfonts 
% abcbook-repeats 1


